assets/images/MyLogo/LOGO_carré_petit.svg

<?xml version="1.0" encoding="UTF-8"?>
<svg id="Calque_2" xmlns="http://www.w3.org/2000/svg" viewBox="0 0 140.77 77.17">
  <defs>
    <style>
      .cls-1 {
        fill: #3e618c;
      }

      .cls-2 {
        fill: #9d97ca;
      }
    </style>
  </defs>
  <g id="LOGO_MIN">
    <g id="Calque_2-2" data-name="Calque_2">
      <path class="cls-2" d="M131.67,3.63v1.65c-3.38.36-6.11,6.44-6.4,14.14h-.02v3.24l-12.32-12.32c-1.17-2.95-2.82-4.86-4.67-5.06v-1.65h23.41Z"/>
    </g>
    <g id="Calque_1-2" data-name="Calque_1">
      <path class="cls-2" d="M23.65,71.98v1.65h-14.79v-1.65c3.38-.36,6.11-6.44,6.4-14.14h.02v-25.32l2.02-2.02v28.34c.48,7.22,3.12,12.8,6.35,13.14Z"/>
      <path class="cls-2" d="M131.67,71.98v1.65h-23.41v-1.65c2.13-.23,4-2.72,5.16-6.46.69-2.19,1.13-4.83,1.24-7.68h.02v-20.41h-34.97v22.53c.66,6.67,3.19,11.69,6.25,12.02v1.65h-23.23v-1.65c3.38-.36,6.11-6.44,6.4-14.14h.02V19.42h-.02c-.07-1.96-.3-3.82-.66-5.5l-18.63,32.27-.37.64-5.72,9.85-1.17-1.95-18.64-30.87-3.32-5.48-3.32-5.5v8.82l-2.02,2.02v-4.3h-.02c-.29-7.7-3.02-13.78-6.4-14.14v-1.65h15.28l4.23,7,3.31,5.49,16.96,28.1,19.07-33.03c-1.17-3.43-2.96-5.69-4.98-5.91v-1.65h23.23v1.65c-3.06.33-5.59,5.35-6.25,12.02v18.35h34.97v-14.76l10.57,10.57v26.38h.02c.29,7.7,3.02,13.78,6.4,14.14Z"/>
    </g>
    <g id="Calque_4">
      <polygon class="cls-1" points="42.58 5.22 31.68 16.12 28.37 10.63 38.18 .82 42.58 5.22"/>
      <polygon class="cls-1" points="23.94 23.86 17.3 30.5 15.28 32.52 8.8 39 15.28 45.48 15.28 54.28 0 39 4.4 34.6 20.62 18.38 23.94 23.86"/>
      <polygon class="cls-1" points="42.58 72.77 38.18 77.17 17.3 56.3 17.3 47.5 42.58 72.77"/>
      <polygon class="cls-1" points="125.25 44.9 131.97 38.18 125.25 31.46 98.19 4.4 102.59 0 112.93 10.34 136.37 33.78 140.77 38.18 125.25 53.7 125.25 44.9"/>
      <path class="cls-1" d="M114.68,55.46v2.38h-.02c-.11,2.85-.55,5.49-1.24,7.68l-10.83,10.83-4.4-4.4,16.49-16.49Z"/>
    </g>
  </g>
</svg>

<svg width="141" height="78" viewBox="0 0 141 78" fill="none" xmlns="http://www.w3.org/2000/svg">
<g clip-path="url(#clip0_136_34)">
<path d="M131.67 3.63V5.28C128.29 5.64 125.56 11.72 125.27 19.42H125.25V22.66L112.93 10.34C111.76 7.39 110.11 5.48 108.26 5.28V3.63H131.67Z" fill="#3E618B"/>
<path d="M23.65 71.98V73.63H8.85999V71.98C12.24 71.62 14.97 65.54 15.26 57.84H15.28V32.52L17.3 30.5V58.84C17.78 66.06 20.42 71.64 23.65 71.98Z" fill="#3E618B"/>
<path d="M131.67 71.98V73.63H108.26V71.98C110.39 71.75 112.26 69.26 113.42 65.52C114.11 63.33 114.55 60.69 114.66 57.84H114.68V37.43H79.71V59.96C80.37 66.63 82.9 71.65 85.96 71.98V73.63H62.73V71.98C66.11 71.62 68.84 65.54 69.13 57.84H69.15V19.42H69.13C69.06 17.46 68.83 15.6 68.47 13.92L49.84 46.19L49.47 46.83L43.75 56.68L42.58 54.73L23.94 23.86L20.62 18.38L17.3 12.88V21.7L15.28 23.72V19.42H15.26C14.97 11.72 12.24 5.64 8.85999 5.28V3.63H24.14L28.37 10.63L31.68 16.12L48.64 44.22L67.71 11.19C66.54 7.76 64.75 5.5 62.73 5.28V3.63H85.96V5.28C82.9 5.61 80.37 10.63 79.71 17.3V35.65H114.68V20.89L125.25 31.46V57.84H125.27C125.56 65.54 128.29 71.62 131.67 71.98Z" fill="#3E618B"/>
<path d="M42.58 5.21995L31.68 16.1199L28.37 10.6299L38.18 0.819946L42.58 5.21995Z" fill="#9D97CF"/>
<path d="M23.94 23.86L17.3 30.5L15.28 32.52L8.8 39L15.28 45.48V54.28L0 39L4.4 34.6L20.62 18.38L23.94 23.86Z" fill="#9D97CF"/>
<path d="M42.58 72.77L38.18 77.17L17.3 56.3V47.5L42.58 72.77Z" fill="#9D97CF"/>
<path d="M125.25 44.9L131.97 38.18L125.25 31.46L98.19 4.4L102.59 0L112.93 10.34L136.37 33.78L140.77 38.18L125.25 53.7V44.9Z" fill="#9D97CF"/>
<path d="M114.68 55.46V57.84H114.66C114.55 60.69 114.11 63.33 113.42 65.52L102.59 76.35L98.19 71.95L114.68 55.46Z" fill="#9D97CF"/>
</g>
<defs>
<clipPath id="clip0_136_34">
<rect width="140.77" height="77.17" fill="white"/>
</clipPath>
</defs>
</svg>
